build/service/ProcessOutline.svg

<svg xmlns="http://www.w3.org/2000/svg" fill="none" viewBox="0 0 24 24" focusable="false"><path d="M0 0H24V24H0z"/><path fill="#74767B" fill-rule="evenodd" d="M12 3C7.02944 3 3 7.02944 3 12C3 16.9706 7.02944 21 12 21C16.9706 21 21 16.9706 21 12C21 7.02944 16.9706 3 12 3ZM4.3853 10.85C4.94045 7.14287 8.13823 4.3 12 4.3C15.8618 4.3 19.0595 7.14287 19.6147 10.85L16.5 10.85C16.2431 10.85 16.0103 11.0013 15.906 11.236L14.7099 14.897L12.6286 6.33456C12.5566 6.06082 12.3157 5.86517 12.033 5.85082C11.7503 5.83647 11.4908 6.00671 11.3914 6.27175L8.83694 13.0836L7.54083 11.1394C7.42028 10.9586 7.21733 10.85 7 10.85L4.3853 10.85ZM4.30143 12.15C4.38135 16.3334 7.79751 19.7 12 19.7C16.2025 19.7 19.6186 16.3334 19.6986 12.15L16.9224 12.15L15.1462 17.1161C15.0341 17.3683 14.7751 17.5222 14.5 17.5C14.2249 17.4778 13.9939 17.2844 13.9236 17.0175L11.8913 8.64104L9.60861 14.7282C9.52297 14.9566 9.31666 15.1178 9.07434 15.1457C8.83202 15.1736 8.59447 15.0635 8.45917 14.8605L6.65213 12.15L4.30143 12.15Z"/></svg>

<svg xmlns="http://www.w3.org/2000/svg" fill="none" viewBox="0 0 24 24" focusable="false"><path fill="#74767B" fill-rule="evenodd" d="M12 3c-4.98 0-9 4.02-9 9 0 4.97 4.02 9 9 9a9 9 0 0 0 9-9c0-4.98-4.03-9-9-9m-7.62 7.85C4.94 7.14 8.13 4.29 12 4.29c3.86 0 7.05 2.85 7.61 6.56H16.5c-.26 0-.49.15-.6.38l-1.19 3.66-2.09-8.56a.64.64 0 0 0-.59-.48.64.64 0 0 0-.64.42l-2.56 6.81-1.29-1.95a.65.65 0 0 0-.54-.28zm-.08 1.3A7.7 7.7 0 0 0 12 19.7c4.2 0 7.61-3.37 7.69-7.55h-2.77l-1.78 4.96c-.11.25-.37.41-.64.39a.66.66 0 0 1-.58-.49l-2.03-8.37-2.29 6.08c-.08.23-.29.39-.53.42a.66.66 0 0 1-.62-.28l-1.8-2.71z"/></svg>
